X: 23341
T: Leipzig, The
R: jig
M: 6/8
K: Edorian
|:GFE B2G|ABc {e}dcd|egf edB|cBA GAB|
GFE B2G|ABc {e}dcd|egf edB|1 cBG E2F:|2 cBG E2e||
edB ~f3|~g3 fBf|efg edB|cBA GAB|
~e3 fBf|g/a/bg fBf|efg edB|cBG E2e|
edB fBf|b2g fBf|efg edB|cBA GAB|
edB f2f|g/a/bg f2=c'|bag fed|~=c3 BAF||

